X:468
T:Reel 468
M:4/4
K:Gmaj
L:1/8
d>G (3GGG G>G (3GGG |dGBG edd2|d>g (3gfg a>g (3BAG |eaag agag|d>g (3gfg b>g (3ggg |dgf (3bag e2d2|d>g (3gfg b>g (3ggg |eaab gbag|d2de dBG2|dggf e2B2|d>g (3ggg a>g (3gfg |defg dBA2|d>g (3gfg a2g2|d>g (3ggg g2g2|e>ddB degaba|g>f (3fgf g2f2|
